X: 26183
T: McLaughlin's
R: strathspey
M: 4/4
K: Cmajor
e>f|"C"g>c e<g "F/C"a>g fe/f/|"C"g>c e<g "F/C"f<a d>f|"C/E"e<g cB "F"A>c f<a|"G"g<a e>d e<~c- ce/f/|
"C"g>c e<g "F/C"a>g g/f/e/f/|"C"g>c e<g "F/C"f<a d>f|"C/E"e<g cB "F"A>c f<a|"G"g<a e>d e<~c- c<e||
"C/E"E>G c>G "F"A<c F>a|"C"g>c g>e "G"e<~d- d>e|"C/E"E>G c>G "F"A<c Fa|"G"g<a e>d "C"e<~c- "G/B"ce|
"Am"E>G "G"c>G "F"Acfa|"C"g>a g>e "G"e<~d- d>e|"C/E"cedf "F"egfa|"G"g<a e>d e<~c- c2||

